Sources/FrostedUI/Resources/Icons.xcassets/compass12.imageset/compass-12.svg

<svg width="12" height="12" viewBox="0 0 12 12" fill="none" xmlns="http://www.w3.org/2000/svg" data-fui-icon="true">
  <g clip-path="url(#clip0_5548_23)">
    <path
      d="M6 0.25C9.17564 0.25 11.75 2.82436 11.75 6C11.75 9.17564 9.17564 11.75 6 11.75C2.82436 11.75 0.25 9.17564 0.25 6C0.25 2.82436 2.82436 0.25 6 0.25ZM6 1.75C3.65279 1.75 1.75 3.65279 1.75 6C1.75 8.34721 3.65279 10.25 6 10.25C8.34721 10.25 10.25 8.34721 10.25 6C10.25 3.65279 8.34721 1.75 6 1.75ZM7.0332 3.9082C7.71903 3.69472 8.37923 4.41855 8.03711 5.10352L7.32031 6.53711C7.15098 6.87578 6.87578 7.15098 6.53711 7.32031L5.10352 8.03711C4.37312 8.40193 3.59807 7.62688 3.96289 6.89648L4.53125 5.76074C4.79733 5.22869 5.22869 4.79733 5.76074 4.53125L6.89648 3.96289L7.0332 3.9082Z"
      fill="currentColor"
    />
  </g>
  <defs>
    <clipPath id="clip0_5548_23"><path fill="currentColor" d="M0 0H12V12H0z" /></clipPath>
  </defs>
</svg>

<svg xmlns="http://www.w3.org/2000/svg" width="12" height="12" fill="none" data-fui-icon="true" viewBox="0 0 12 12"><g clip-path="url(#a)"><path fill="currentColor" d="M6 .25a5.75 5.75 0 1 1 0 11.5A5.75 5.75 0 0 1 6 .25m0 1.5a4.25 4.25 0 1 0 0 8.5 4.25 4.25 0 0 0 0-8.5m1.033 2.158c.686-.213 1.346.51 1.004 1.196L7.32 6.537c-.169.339-.444.614-.783.783l-1.433.717c-.73.365-1.506-.41-1.141-1.14L4.53 5.76a2.75 2.75 0 0 1 1.23-1.23l1.135-.568z"/></g><defs><clipPath id="a"><path fill="currentColor" d="M0 0h12v12H0z"/></clipPath></defs></svg>
